packages/core/src/svgs/tokens/mono/GAMEFI.svg

<svg width="24" height="24" viewBox="0 0 24 24" fill="none" xmlns="http://www.w3.org/2000/svg">
<path d="M2 4.23333L4.21334 2L8.00001 5.82668L8.01334 5.82L10.2201 8.05335V8.06668L8.01334 10.3L8.00001 10.2933L4.21334 14.12L2 11.8867L5.79334 8.06001L2 4.23333ZM22 12.1133L19.7867 9.88001L16.0001 13.7067L15.9867 13.7L13.78 15.9333V15.9467L15.9867 18.18L16.0001 18.1733L19.7867 22L22 19.7667L18.2068 15.94L22 12.1133ZM14.0001 19.7667L11.8 22L8.00001 18.1733L4.21334 22L2 19.7667L5.79334 15.94L5.78001 15.9333L8.00001 13.7L8.00668 13.7067L8.02002 13.7L10.2267 15.9333V15.94L14.0001 19.7667ZM19.5534 2L21.7667 4.23333L17.98 8.06001L17.9867 8.06668L15.7734 10.3L15.7667 10.2933L15.7533 10.3L13.5466 8.06668L13.5533 8.06001L9.76008 4.23333L11.9666 2L15.76 5.82668L19.5467 2H19.5534Z" fill="white"/>
</svg>

<svg xmlns="http://www.w3.org/2000/svg" width="24" height="24" fill="none" viewBox="0 0 24 24">
    <path fill="#fff" d="M2 4.233 4.213 2 8 5.827l.013-.007 2.207 2.233v.014L8.013 10.3 8 10.293 4.213 14.12 2 11.887 5.793 8.06zm20 7.88L19.787 9.88 16 13.707l-.013-.007-2.207 2.233v.014l2.207 2.233.013-.007L19.787 22 22 19.767l-3.793-3.827zm-8 7.654L11.8 22 8 18.173 4.213 22 2 19.767l3.793-3.827-.013-.007L8 13.7l.007.007.013-.007 2.207 2.233v.007zM19.553 2l2.214 2.233L17.98 8.06l.007.007-2.214 2.233-.006-.007-.014.007-2.206-2.233.006-.007L9.76 4.233 11.967 2l3.793 3.827L19.547 2z"/>
</svg>
